X:1
T:Domine, ne memineris
T:Thomas Stoltzer
T:Source : Bicinia---Tomus I---Wittemberg---G.Rhau---1545. Editor : André Vierendeels (16/06/17).
T:Notes : Original clefs : C4, F3 Original note values have been halved Editorial accidentals above the staff Dotted brackets indicate black notes Square brackets indicate ligatures m 22 in T : "A" notated as "G" in original print (editorial suggestion)
T:Domine, ne memineris 
T:©
T:©
C:Thomas Stoltzer
Z:©
%%score [ 1 2 ]
L:1/8
Q:1/4=120
M:2/2
K:C
V:1 treble-8 nm="Tenor" snm="T"
V:2 bass nm="Bass" snm="B"
V:1
 d4 c2 d2- | dc B2 A2 d2 | e2 d2 c2 d2- | dc B2 A2 G2 | A4 AGAB | c2 BA G2 A2 | D2 d4 c2 | %7
w: Do- mi- *||||||* * mi-|
 d4 z2 A2- | A2 G2 c3 d | e2 f4 ed | c2 d4 cB | A4 z2 A2 | A2 c2 cBcA | B4 A4 | z2 A2 A3 B | %15
w: ne, ne|_ _ me- *|* mi- * *|* ne- * *|ris, in-|i- qui ta- * * *|* tum|no- stra- *|
 c2 A2 z2 A2- | A2 A2 A3 B | c2 A2 G2 d2- | d2 c2 BG c2- | c2 B2 c2 A2 | G4 z2 c2 | B2 A2 d2 cB | %22
w: * rum an-|* ti- qua- *||||rum, ci-|to an- ti _ _|
 A2 B2 A4 | D4 z2 D2 | F3 G A2 B2 | A4 z2 A2- | A2 G2 A3 B | cd c3 B A2 | G4 z2 G2 | A2 c3 B G2 | %30
w: ci- pi- tent|nos, mi-|se- ri- cor- di-|ae tu-|||ae, qui-|a pau- * *|
 A2 d3 cBA | G2 c2 _BAGF | G4 A3 B | c4 z2 c2- | c2 c2 c4 | B3 c d2 A2 | BcdB c3 B | AG d4 c2 | %38
w: ||pe- * *|res fa-|* cti su-|mus _ _ _|_ _ _ _ ni- *||
 d8 |] %39
w: mis.|
V:2
 D,4 F,3 E, | F,2 G,4 F,2 | G,4 A,2 G,2 | F,2 G,2 F,2 E,2 | C,2 D,C, D,E, F,2 | E,2 D,2 E,2 F,2- | %6
w: Do- * *|* * mi-|ne, _ _|_ _ _ _|||
 F,2 E,D, E,4 | z2 D,2 C,2 F,2 | F,2 G,2 A,2 A,2- | A,G,F,E, D,2 E,2 | F,4 D,4 | z2 D,2 D,2 F,2- | %12
w: |ne me- mi-|ne- * * *||ris, _|in- i- qui-|
 F,2 E,2 F,4 | D,4 z2 D,2 | D,2 F,2 D,4 | z2 D,2 D,2 D,2- | D,E, F,2 D,4 | C,4 E,2 D,2 | %18
w: ta- * *|tum no-|stra- * rum|an- ti qua-|||
 E,2 F,2 G,2 F,E, | D,4 C,4 | z2 C,4 C,2 | E,2 F,2 D,2 F,2- | F,D, D,2 D,4 | z2 D,2 D,2 F,2 | %24
w: |* rum|ci- to|an- ti- ci- *|* * pent nos,|mi- se- *|
 D,2 D,3 D, D,2 | D,2 C,2 D,3 E, | F,2 G,3 F, F,2- | F,2 E,2 F,4 | z2 C,4 C,2 | F,4 E,4 | %30
w: ri- cor- di- ae|tu- * * *||* * ae,|qui- a|pau- *|
 F,4 G,3 F, | E,D, C,2 D,C, F,2- | F,2 E,2 F,4 | z2 F,4 F,2 | F,4 E,3 F, | G,6 F,2 | %36
w: ||* pe- res|fa- cti|su- * *||
 G,2 D,2 E,2 F,2- | F,E,F,D, E,4 |"^#" D,8 |] %39
w: mus ni- * *||mis.|

